Papirus-Dark/16x16/actions/office-chart-line-percentage.svg

<svg xmlns="http://www.w3.org/2000/svg" width="16" height="16" version="1.1">
 <defs>
  <style id="current-color-scheme" type="text/css">
   .ColorScheme-Text { color:#dfdfdf; } .ColorScheme-Highlight { color:#4285f4; } .ColorScheme-NeutralText { color:#ff9800; } .ColorScheme-PositiveText { color:#4caf50; } .ColorScheme-NegativeText { color:#f44336; }
  </style>
 </defs>
 <path style="fill:currentColor" class="ColorScheme-Text" d="m 1,2 v 11 2 H 3 14 V 13 H 3 V 12 H 3.0078125 4 6 v -0.0078 l 0.00781,0.0078 2,-2 h 1.5917969 l 1.9999996,2 H 14 v -1 h -1.986328 l -2,-2 H 10 9.0078125 8.5996094 7.59375 l -2,2 H 4 3.0078125 3 V 9 H 4.8730469 4.875 l 2,-2 H 5.4609375 l -1,1 H 3 V 2 Z M 4,2 V 3 H 5 V 6 H 6 V 2 H 5 Z M 8.5,2 C 7.669,2 7,2.669 7,3.5 v 1 C 7,5.331 7.669,6 8.5,6 9.331,6 10,5.331 10,4.5 v -1 C 10,2.669 9.331,2 8.5,2 Z m 4,0 C 11.669,2 11,2.669 11,3.5 v 1 C 11,5.331 11.669,6 12.5,6 13.331,6 14,5.331 14,4.5 v -1 C 14,2.669 13.331,2 12.5,2 Z m -4,1 C 8.777,3 9,3.223 9,3.5 v 1 C 9,4.777 8.777,5 8.5,5 8.223,5 8,4.777 8,4.5 v -1 C 8,3.223 8.223,3 8.5,3 Z m 4,0 C 12.777,3 13,3.223 13,3.5 v 1 C 13,4.777 12.777,5 12.5,5 12.223,5 12,4.777 12,4.5 v -1 C 12,3.223 12.223,3 12.5,3 Z"/>
</svg>

<svg xmlns="http://www.w3.org/2000/svg" width="16" height="16" viewBox="0 0 16 16">
 <defs>
  <style id="current-color-scheme" type="text/css">
   .ColorScheme-Text { color:#dfdfdf; } .ColorScheme-Highlight { color:#4285f4; } .ColorScheme-NeutralText { color:#ff9800; } .ColorScheme-PositiveText { color:#4caf50; } .ColorScheme-NegativeText { color:#f44336; }
  </style>
 </defs>
 <path style="fill:currentColor" class="ColorScheme-Text" d="M 2 2 L 2 4.9921875 L 1 4.9921875 L 1 5 L 2 5 L 2 13 L 2 14 L 3 14 L 14 14 L 14 13 L 3 13 L 3 12 L 3.0078125 12 L 4 12 L 6 12 L 6 11.992188 L 6.0078125 12 L 8.0078125 10 L 9.5996094 10 L 11.599609 12 L 14 12 L 14 11 L 12.013672 11 L 10.013672 9 L 10 9 L 9.0078125 9 L 8.5996094 9 L 7.59375 9 L 5.59375 11 L 4 11 L 3.0078125 11 L 3 11 L 3 9 L 4.8730469 9 L 4.875 9 L 6.875 7 L 5.4609375 7 L 4.4609375 8 L 3 8 L 3 5 L 4 5 L 4 4.9921875 L 3 4.9921875 L 3 2 L 2 2 z M 4 2 L 4 3 L 5 3 L 5 6 L 6 6 L 6 2 L 5 2 L 4 2 z M 8.5 2 C 7.669 2 7 2.669 7 3.5 L 7 4.5 C 7 5.331 7.669 6 8.5 6 C 9.331 6 10 5.331 10 4.5 L 10 3.5 C 10 2.669 9.331 2 8.5 2 z M 12.5 2 C 11.669 2 11 2.669 11 3.5 L 11 4.5 C 11 5.331 11.669 6 12.5 6 C 13.331 6 14 5.331 14 4.5 L 14 3.5 C 14 2.669 13.331 2 12.5 2 z M 8.5 3 C 8.777 3 9 3.223 9 3.5 L 9 4.5 C 9 4.777 8.777 5 8.5 5 C 8.223 5 8 4.777 8 4.5 L 8 3.5 C 8 3.223 8.223 3 8.5 3 z M 12.5 3 C 12.777 3 13 3.223 13 3.5 L 13 4.5 C 13 4.777 12.777 5 12.5 5 C 12.223 5 12 4.777 12 4.5 L 12 3.5 C 12 3.223 12.223 3 12.5 3 z"/>
</svg>
